X:16848
T:The Hole in the Hedge
T:Cooley's
M:6/8
L:1/8
C:Joe Cooley
R:jig
D:Tulla Ceili Band, A Celebration of 50 Years
D:Noel Hill & Tony MacMahon, Aisling Ceol
Z:gturnbull@oblique-design.demon.co.uk
K:G
BAB G2 E | DED DEG | GAB AGE | ABA AGA  |
BAB G2 E | DED DEG | GAB AGE | ~G3 G2 A :||
BAB d2 A | BAB d2 B | ABA AGE | ABA AGA |
BAB d2 A | BAB d2 B | GAB AGE | G3 G2 A :||
